public/icons/icon-girl.svg

<svg width="25" height="25" viewBox="0 0 25 25" fill="none" xmlns="http://www.w3.org/2000/svg">
<path d="M10.0084 12.0008C10.0084 12.5531 9.56069 13.0009 9.00836 13.0009C8.45603 13.0009 8.00828 12.5531 8.00828 12.0008C8.00828 11.4485 8.45603 11.0007 9.00836 11.0007C9.56069 11.0007 10.0084 11.4485 10.0084 12.0008Z" fill="#273D63"/>
<path d="M15.0088 13.0009C15.5612 13.0009 16.0089 12.5531 16.0089 12.0008C16.0089 11.4485 15.5612 11.0007 15.0088 11.0007C14.4565 11.0007 14.0087 11.4485 14.0087 12.0008C14.0087 12.5531 14.4565 13.0009 15.0088 13.0009Z" fill="#273D63"/>
<path fill-rule="evenodd" clip-rule="evenodd" d="M12.033 2.00003L12.0086 2C6.48531 2 2.00781 6.4775 2.00781 12.0008C2.00781 17.5241 6.48531 22.0016 12.0086 22.0016C17.5319 22.0016 22.0094 17.5241 22.0094 12.0008C22.0094 6.74271 17.9515 2.43241 12.7966 2.03059L12.7972 2.02821C12.5416 2.00891 12.2866 1.99961 12.033 2.00003ZM12.0086 20.0014C16.4272 20.0014 20.0092 16.4194 20.0092 12.0008C20.0092 11.3021 19.9197 10.6244 19.7514 9.97837C16.1687 10.2319 12.7445 8.52512 10.769 5.60274C9.3216 7.07926 7.30643 7.99713 5.07684 8.003C4.39702 9.17921 4.00797 10.5446 4.00797 12.0008C4.00797 16.4194 7.58997 20.0014 12.0086 20.0014ZM11.9871 4.00018L12.0322 4.00019L12.0086 4.00016L11.9871 4.00018Z" fill="#273D63"/>
</svg>

<svg viewBox="0 0 25 25" fill="none" xmlns="http://www.w3.org/2000/svg"><path d="M10.008 12a1 1 0 1 1-2 0 1 1 0 0 1 2 0zM15.009 13a1 1 0 1 0 0-2 1 1 0 0 0 0 2z" fill="#273D63"/><path fill-rule="evenodd" clip-rule="evenodd" d="M12.033 2h-.024C6.485 2 2.008 6.478 2.008 12c0 5.524 4.477 10.002 10 10.002 5.524 0 10.001-4.478 10.001-10.001 0-5.258-4.058-9.569-9.212-9.97v-.003A9.932 9.932 0 0 0 12.033 2zm-.024 18.001A8 8 0 0 0 19.75 9.978a10.017 10.017 0 0 1-8.982-4.375 7.976 7.976 0 0 1-5.692 2.4 8 8 0 0 0 6.932 11.998zm-.022-16h.045-.045z" fill="#273D63"/></svg>
